coreui/free/cil-list-high-priority.svg

<svg xmlns="http://www.w3.org/2000/svg" viewBox="0 0 512 512">
  <rect width="240" height="32" x="256" y="416" fill="var(--ci-primary-color, currentColor)" class="ci-primary"/>
  <rect width="240" height="32" x="256" y="309.333" fill="var(--ci-primary-color, currentColor)" class="ci-primary"/>
  <rect width="240" height="32" x="256" y="202.667" fill="var(--ci-primary-color, currentColor)" class="ci-primary"/>
  <rect width="168" height="32" x="328" y="96" fill="var(--ci-primary-color, currentColor)" class="ci-primary"/>
  <path fill="var(--ci-primary-color, currentColor)" d="M302,111,167.2,27.216V96h-5.965C121.783,96,84.91,114.755,57.4,148.81,30.7,181.866,16,225.616,16,272s14.7,90.134,41.4,123.19C84.91,429.245,121.783,448,161.231,448H216V416H161.231C98.8,416,48,351.4,48,272S98.8,128,161.231,128H167.2v69.228ZM199.2,84.784,242,111.391,199.2,138.772Z" class="ci-primary"/>
</svg>

<svg viewBox="0 0 512 512" xmlns="http://www.w3.org/2000/svg"><g><path d="M256 416h240v32H256Z"/><path d="M256 309.33h240v32H256Z"/><path d="M256 202.667h240v32H256Z"/><path d="M328 96h168v32H328Z"/><path d="M302 111L167.2 27.21v68.78h-5.97c-39.46 0-76.33 18.75-103.84 52.81 -26.7 33.05-41.4 76.8-41.4 123.19 0 46.38 14.7 90.13 41.4 123.19 27.51 34.05 64.38 52.81 103.83 52.81h54.76v-32h-54.77c-62.431 0-113.231-64.6-113.231-144s50.8-144 113.231-144h5.96v69.22ZM199.2 84.78l42.8 26.607 -42.8 27.38Z"/></g></svg>
